X: 224
T:Ding Dong Merrily On High
M:4/4
L:1/8
F:http://blackrosetheband.googlepages.com/ABCTUNES.ABC May 2009
K:D
d2d2 edcB|A6 A2|B2d2d2c2|d4d4|
d2d2 edcB|A6 A2|B2d2d2c2|d4d4|
|:a3g fgaf|g3f efge|f3e defd|e3d cdec|
d3c BcdB|c3B A2A2|B2d2d2c2|d4d4:||
T:Low Harmony
A2A2 BBGG|E6 A2|A2 G2 E2 A2|A4A4|
A2A2 BBGG|E6 A2|A2 G2 E2 A2|A4A4|
|:z2A4d2|dcBA BA G2|z2AG F2B2|BAGF GF E2|
z2FE D2 G2|EFGF E2 A2|A2G2E2A2|A4A4:||

